tg-td/_inc/system.svg

<svg height="140" viewBox="0 0 600 140" width="600" xmlns="http://www.w3.org/2000/svg"><path d="m43 13v69h-13v-69h-30v-13h73v13zm74 9v42h-57v-42h13v29h31v-29zm12 0h64l-20 22 20 20h-15l-20-20 9-9h-25v29h-13zm69 42v-42h66l-23 22 23 20zm31-20 7-9h-26v16h26zm41 20v-42h57v42zm44-13v-16h-32v16zm49-51h20l37 42-37 40h-20zm42 43-29-27v51zm81-21v42h-57v-42h13v29h31v-29zm12 42v-42h57v42zm44-13v-16h-32v16z" fill="#fff" transform="translate(23 29)"/></svg>

<svg xmlns="http://www.w3.org/2000/svg" width="600" height="140" viewBox="0 0 600 140">
  <path fill="#FFF" d="M43,13 L43,82 L30,82 L30,13 L0,13 L0,0 L73,0 L73,13 L43,13 Z M117,22 L117,64 L60,64 L60,22 L73,22 L73,51 L104,51 L104,22 L117,22 Z M129,22 L193,22 L173,44 L193,64 L178,64 L158,44 L167,35 L142,35 L142,64 L129,64 L129,22 Z M198,64 L198,22 L264,22 L241,44 L264,64 L198,64 Z M229,44 L236,35 L210,35 L210,51 L236,51 L229,44 Z M270,64 L270,22 L327,22 L327,64 L270,64 Z M314,51 L314,35 L282,35 L282,51 L314,51 Z M363,0 L383,0 L420,42 L383,82 L363,82 L363,0 Z M405,43 L376,16 L376,67 L405,43 Z M486,22 L486,64 L429,64 L429,22 L442,22 L442,51 L473,51 L473,22 L486,22 Z M498,64 L498,22 L555,22 L555,64 L498,64 Z M542,51 L542,35 L510,35 L510,51 L542,51 Z" transform="translate(23 29)"/>
</svg>
